public/assets/logos/svg/logo-on-dark.svg

<svg fill="none" height="101" viewBox="0 0 144 101" width="144" xmlns="http://www.w3.org/2000/svg" xmlns:xlink="http://www.w3.org/1999/xlink"><clipPath id="a"><path d="m0 0h144v100.696h-144z"/></clipPath><g clip-path="url(#a)"><path d="m59.9602 73.8983c0 5.257-.8053 9.5759-2.4161 12.9566-1.6107 3.3807-3.8321 6.1066-6.6464 8.1775-2.8232 2.0709-6.434 3.956-10.8414 5.6636l-4.6286-10.1506c2.5577-1.1859 4.5667-2.3453 6.0093-3.4958 1.4425-1.1505 2.5576-2.6904 3.3541-4.6286.7877-1.9382 1.186-4.487 1.186-7.6376v-47.8879h13.992v46.994zm-.9381-71.57957c1.6107 1.53991 2.4161 3.49579 2.4161 5.85876 0 2.36301-.8054 4.31881-2.4161 5.85881-1.6107 1.5487-3.6639 2.3187-6.1597 2.3187-2.4957 0-4.5312-.77-6.1065-2.3187-1.5754-1.54-2.363-3.4958-2.363-5.85881 0-2.36297.7876-4.31885 2.363-5.85876 1.5753-1.539921 3.6108-2.31873 6.1065-2.31873 2.4958 0 4.549.769959 6.1597 2.31873z" fill="#fff"/><path d="m110.016 31.6303-5.319 7.9828c-4.399-2.7612-8.7353-4.1418-13.0099-4.1418-2.301 0-4.071.4248-5.3189 1.2832-1.2478.8585-1.8762 2.009-1.8762 3.4516 0 1.0531.2744 1.9381.8408 2.6638.5575.7257 1.6107 1.4161 3.1506 2.071s3.8587 1.4425 6.9473 2.3629c5.5133 1.5134 9.6203 3.5312 12.3193 6.0624 2.691 2.5311 4.036 5.9915 4.036 10.3988 0 3.4781-1 6.5049-3 9.0625-2.009 2.5577-4.718 4.5136-8.134 5.8588-3.4158 1.3452-7.2214 2.0178-11.4252 2.0178s-8.4076-.6726-12.0184-2.0178c-3.6109-1.3452-6.6995-3.2037-9.2572-5.5667l6.8942-7.6819c4.3985 3.4161 9.0625 5.1242 13.992 5.1242 2.6285 0 4.7083-.5044 6.257-1.5311 1.5399-1.0177 2.3188-2.416 2.3188-4.1861 0-1.3806-.2921-2.4603-.8851-3.2479-.5929-.7877-1.6726-1.5311-3.2479-2.2126-1.5754-.6814-4.0357-1.4956-7.3899-2.416-5.2569-1.4426-9.151-3.4958-11.6733-6.1597-2.5311-2.6639-3.7966-5.965-3.7966-9.9033 0-2.9559.8496-5.6198 2.5576-7.9828 1.7081-2.3629 4.1242-4.2215 7.2394-5.5667s6.7526-2.0178 10.8856-2.0178c7.3545 0 13.665 2.1063 18.922 6.3013z" fill="#fff"/><g fill="#f6d117"><path d="m133.115 6.00049c2.266 1.93817 3.398 5.07111 3.398 9.40761v25.1255c0 2.6285.611 4.4958 1.824 5.6109 1.212 1.1152 3.106 1.6727 5.664 1.6727v4.9295c-2.558 0-4.452.5576-5.664 1.6727-1.213 1.1151-1.824 2.9559-1.824 5.5136v25.1254c0 4.3366-1.132 7.4695-3.398 9.4077s-5.797 2.9028-10.594 2.9028v-4.4339c3.089 0 5.284-.6106 6.603-1.8231 1.309-1.2125 1.973-3.1683 1.973-5.8588v-24.9307c0-3.2834.575-5.6021 1.726-6.9473s3.071-2.3807 5.761-3.1064c-2.628-.7257-4.531-1.77-5.717-3.1506-1.186-1.3807-1.77-3.6817-1.77-6.8943v-25.0104c0-2.6904-.655-4.6463-1.973-5.85872-1.319-1.21247-3.514-1.82312-6.603-1.82312v-4.4339c4.797 0 8.328.97351 10.594 2.90283z"/><path d="m21.4792 7.53156c-3.0887 0-5.2835.61065-6.6022 1.82312-1.3186 1.21242-1.9736 3.16832-1.9736 5.85872v25.0281c0 3.2215-.5929 5.5136-1.77 6.8943-1.17704 1.3806-3.08866 2.4337-5.71714 3.1506 2.69043.7257 4.61094 1.7612 5.76144 3.1064s1.7257 3.6639 1.7257 6.9473v24.9307c0 2.6905.655 4.6464 1.9736 5.8588 1.3098 1.2125 3.5135 1.8231 6.6022 1.8231v4.4339c-4.8587 0-8.4076-.9735-10.6378-2.9028-2.23025-1.9382-3.35421-5.0711-3.35421-9.4077v-25.1254c0-2.5577-.61066-4.3985-1.82313-5.5136-1.22131-1.1151-3.10638-1.6727-5.66406-1.6727v-4.9295c2.55768 0 4.4516-.5575 5.66406-1.6726 1.21247-1.1152 1.82313-2.9914 1.82313-5.611v-25.1432c0-4.3365 1.11511-7.46944 3.35421-9.40761 2.2302-1.93817 5.7791-2.90283 10.6378-2.90283z"/></g></g></svg>

<svg width="144" height="101" viewBox="0 0 144 101" fill="none" xmlns="http://www.w3.org/2000/svg">
<g clip-path="url(#clip0_64_44)">
<path d="M59.9602 73.8983C59.9602 79.1553 59.1549 83.4742 57.5441 86.8549C55.9334 90.2356 53.712 92.9615 50.8977 95.0324C48.0745 97.1033 44.4637 98.9884 40.0563 100.696L35.4277 90.5454C37.9854 89.3595 39.9944 88.2001 41.437 87.0496C42.8795 85.8991 43.9946 84.3592 44.7911 82.421C45.5788 80.4828 45.9771 77.934 45.9771 74.7834V26.8955H59.9691V73.8895L59.9602 73.8983ZM59.0221 2.31873C60.6328 3.85864 61.4382 5.81452 61.4382 8.17749C61.4382 10.5405 60.6328 12.4963 59.0221 14.0363C57.4114 15.585 55.3582 16.355 52.8624 16.355C50.3667 16.355 48.3312 15.585 46.7559 14.0363C45.1805 12.4963 44.3929 10.5405 44.3929 8.17749C44.3929 5.81452 45.1805 3.85864 46.7559 2.31873C48.3312 0.778809 50.3667 0 52.8624 0C55.3582 0 57.4114 0.769959 59.0221 2.31873Z" fill="white"/>
<path d="M110.016 31.6303L104.697 39.6131C100.298 36.8519 95.9617 35.4713 91.6871 35.4713C89.3861 35.4713 87.6161 35.8961 86.3682 36.7545C85.1204 37.613 84.492 38.7635 84.492 40.2061C84.492 41.2592 84.7664 42.1442 85.3328 42.8699C85.8903 43.5956 86.9435 44.286 88.4834 44.9409C90.0233 45.5958 92.3421 46.3834 95.4307 47.3038C100.944 48.8172 105.051 50.835 107.75 53.3662C110.441 55.8973 111.786 59.3577 111.786 63.765C111.786 67.2431 110.786 70.2699 108.786 72.8275C106.777 75.3852 104.068 77.3411 100.652 78.6863C97.2362 80.0315 93.4306 80.7041 89.2268 80.7041C85.023 80.7041 80.8192 80.0315 77.2084 78.6863C73.5975 77.3411 70.5089 75.4826 67.9512 73.1196L74.8454 65.4377C79.2439 68.8538 83.9079 70.5619 88.8374 70.5619C91.4659 70.5619 93.5457 70.0575 95.0944 69.0308C96.6343 68.0131 97.4132 66.6148 97.4132 64.8447C97.4132 63.4641 97.1211 62.3844 96.5281 61.5968C95.9352 60.8091 94.8555 60.0657 93.2802 59.3842C91.7048 58.7028 89.2445 57.8886 85.8903 56.9682C80.6334 55.5256 76.7393 53.4724 74.217 50.8085C71.6859 48.1446 70.4204 44.8435 70.4204 40.9052C70.4204 37.9493 71.27 35.2854 72.978 32.9224C74.6861 30.5595 77.1022 28.7009 80.2174 27.3557C83.3326 26.0105 86.97 25.3379 91.103 25.3379C98.4575 25.3379 104.768 27.4442 110.025 31.6392L110.016 31.6303Z" fill="white"/>
<path d="M133.115 6.00049C135.381 7.93866 136.513 11.0716 136.513 15.4081V40.5336C136.513 43.1621 137.124 45.0294 138.337 46.1445C139.549 47.2597 141.443 47.8172 144.001 47.8172V52.7467C141.443 52.7467 139.549 53.3043 138.337 54.4194C137.124 55.5345 136.513 57.3753 136.513 59.933V85.0584C136.513 89.395 135.381 92.5279 133.115 94.4661C130.849 96.4043 127.318 97.3689 122.521 97.3689V92.935C125.61 92.935 127.805 92.3244 129.124 91.1119C130.433 89.8994 131.097 87.9436 131.097 85.2531V60.3224C131.097 57.039 131.672 54.7203 132.823 53.3751C133.974 52.0299 135.894 50.9944 138.584 50.2687C135.956 49.543 134.053 48.4987 132.867 47.1181C131.681 45.7374 131.097 43.4364 131.097 40.2238V15.2134C131.097 12.523 130.442 10.5671 129.124 9.35468C127.805 8.14221 125.61 7.53156 122.521 7.53156V3.09766C127.318 3.09766 130.849 4.07117 133.115 6.00049Z" fill="#F6D117"/>
<path d="M21.4792 7.53156C18.3905 7.53156 16.1957 8.14221 14.877 9.35468C13.5584 10.5671 12.9034 12.523 12.9034 15.2134V40.2415C12.9034 43.463 12.3105 45.7551 11.1334 47.1358C9.95636 48.5164 8.04474 49.5695 5.41626 50.2864C8.10669 51.0121 10.0272 52.0476 11.1777 53.3928C12.3282 54.738 12.9034 57.0567 12.9034 60.3401V85.2708C12.9034 87.9613 13.5584 89.9172 14.877 91.1296C16.1868 92.3421 18.3905 92.9527 21.4792 92.9527V97.3866C16.6205 97.3866 13.0716 96.4131 10.8414 94.4838C8.61115 92.5456 7.48719 89.4127 7.48719 85.0761V59.9507C7.48719 57.393 6.87653 55.5522 5.66406 54.4371C4.44275 53.322 2.55768 52.7644 0 52.7644V47.8349C2.55768 47.8349 4.4516 47.2774 5.66406 46.1623C6.87653 45.0471 7.48719 43.1709 7.48719 40.5513V15.4081C7.48719 11.0716 8.6023 7.93866 10.8414 6.00049C13.0716 4.06232 16.6205 3.09766 21.4792 3.09766V7.53156Z" fill="#F6D117"/>
</g>
<defs>
<clipPath id="clip0_64_44">
<rect width="144" height="100.696" fill="white"/>
</clipPath>
</defs>
</svg>
